icons/svg/exit-to-app.svg

﻿<?xml version="1.0" encoding="utf-8"?>
<!DOCTYPE svg PUBLIC "-//W3C//DTD SVG 1.1//EN" "http://www.w3.org/Graphics/SVG/1.1/DTD/svg11.dtd">
<svg xmlns="http://www.w3.org/2000/svg" xmlns:xlink="http://www.w3.org/1999/xlink" version="1.1" baseProfile="full" width="24" height="24" viewBox="0 0 24.00 24.00" enable-background="new 0 0 24.00 24.00" xml:space="preserve">
	<path fill="#050708" fill-opacity="1" stroke-width="0.2" stroke-linejoin="round" d="M 18.9994,2.99805L 4.99939,2.99805C 3.89439,2.99805 2.99939,3.89404 2.99939,4.99805L 2.99939,8.99805L 4.99939,8.99805L 4.99939,4.99805L 18.9994,4.99805L 18.9994,18.998L 4.99939,18.998L 4.99939,14.998L 2.99939,14.998L 2.99939,18.998C 2.99939,20.1021 3.89439,20.998 4.99939,20.998L 18.9994,20.998C 20.1034,20.998 20.9994,20.1021 20.9994,18.998L 20.9994,4.99805C 20.9994,3.89404 20.1034,2.99805 18.9994,2.99805 Z M 10.0844,15.584L 11.4994,16.998L 16.4994,11.998L 11.4994,6.99805L 10.0844,8.41205L 12.6704,10.998L 2.99939,10.998L 2.99939,12.998L 12.6704,12.998L 10.0844,15.584 Z "/>
</svg>

<svg xmlns="http://www.w3.org/2000/svg" version="1.1" baseProfile="full" width="24" height="24" viewBox="0 0 24.00 24.00" xml:space="preserve"><path fill="#050708" fill-opacity="1" stroke-width=".2" stroke-linejoin="round" d="M19 2.998H5c-1.106 0-2 .896-2 2v4h2v-4h14v14H5v-4H3v4c0 1.104.894 2 2 2h14c1.103 0 2-.896 2-2v-14c0-1.104-.897-2-2-2zm-8.916 12.586l1.415 1.414 5-5-5-5-1.416 1.414 2.586 2.586H3v2h9.67l-2.586 2.586z"/></svg>
